X:2169 
T:Christ sits on Sion's Hill 
C:F Stowell 
C:Traditional
O:Isle of Man
Z:Clague collection
B:Kiaull Vannin #169 
M:6/8 
L:1/8 
K:D 
D2E|FGA dcB|A3 E2F|GAB A2F|E3 D2E|FGA dcB|A3 E2F|GAB A2E|D3 d2d|
dcd e2c|A3 d2d|cBA B2c|d3 D2D|FGA dcB|A3 E2F|GAB A2E|D3||

